!!!OTL: Martinslied
!!!ARE: Europa, Mitteleuropa, Deutschland
!!!SCT: A0348
!!!YEM: Copyright 1995, estate of Helmut Schaffrath.
**kern
*ICvox
*Ivox
*M4/4
*k[b-]
*d:
{2dd
2dd
=1
2a
2b
=2
2ccn
2a
=3
2fn}
{2g
=4
2a
2g
=5
2fn
2e
=6
2d
2d}
=7
{4d
4d
4d
4e
=8
2fn
4fn
4g
=9
4a
4a
4g
4g
=10
2.a}
{4a
=11
4a
4a
4cc#
4cc#
=12
2dd
2ee}
=13
{4ffn
4ee
4dd
4cc#
=14
2.dd
4dd
=15
4dd
4dd
4ccn
4ccn
=16
2a
4g
4g
=17
4fn
4fn
4e
4e
=18
1d}
==
!!!AGN: Romanze, Ballade, Lied
!! Lambacher Hs. (15. Jh.) fol. 170b.
!!!ONB: ESAC (Essen Associative Code) Database: ALTDEU
!!!AMT: simple quadruple
!!!AIN: vox
!!!EED: Helmut Schaffrath
!!!EEV: 1.0
*-
